app/assets/images/heroicons/outline/globe-alt.svg

<svg width="24" height="24" viewBox="0 0 24 24" fill="none" xmlns="http://www.w3.org/2000/svg">
<path d="M12 21C16.1926 21 19.7156 18.1332 20.7157 14.2529M12 21C7.80742 21 4.28442 18.1332 3.2843 14.2529M12 21C14.4853 21 16.5 16.9706 16.5 12C16.5 7.02944 14.4853 3 12 3M12 21C9.51472 21 7.5 16.9706 7.5 12C7.5 7.02944 9.51472 3 12 3M12 3C15.3652 3 18.299 4.84694 19.8431 7.58245M12 3C8.63481 3 5.70099 4.84694 4.15692 7.58245M19.8431 7.58245C17.7397 9.40039 14.9983 10.5 12 10.5C9.00172 10.5 6.26027 9.40039 4.15692 7.58245M19.8431 7.58245C20.5797 8.88743 21 10.3946 21 12C21 12.778 20.9013 13.5329 20.7157 14.2529M20.7157 14.2529C18.1334 15.6847 15.1619 16.5 12 16.5C8.8381 16.5 5.86662 15.6847 3.2843 14.2529M3.2843 14.2529C3.09871 13.5329 3 12.778 3 12C3 10.3946 3.42032 8.88743 4.15692 7.58245" stroke="#0F172A" stroke-width="1.5" stroke-linecap="round" stroke-linejoin="round"/>
</svg>

<svg xmlns="http://www.w3.org/2000/svg" fill="none" viewBox="0 0 24 24" stroke-width="1.5" stroke="currentColor" aria-hidden="true" data-slot="icon">
  <path stroke-linecap="round" stroke-linejoin="round" d="M12 21a9.004 9.004 0 0 0 8.716-6.747M12 21a9.004 9.004 0 0 1-8.716-6.747M12 21c2.485 0 4.5-4.03 4.5-9S14.485 3 12 3m0 18c-2.485 0-4.5-4.03-4.5-9S9.515 3 12 3m0 0a8.997 8.997 0 0 1 7.843 4.582M12 3a8.997 8.997 0 0 0-7.843 4.582m15.686 0A11.953 11.953 0 0 1 12 10.5c-2.998 0-5.74-1.1-7.843-2.918m15.686 0A8.959 8.959 0 0 1 21 12c0 .778-.099 1.533-.284 2.253m0 0A17.919 17.919 0 0 1 12 16.5c-3.162 0-6.133-.815-8.716-2.247m0 0A9.015 9.015 0 0 1 3 12c0-1.605.42-3.113 1.157-4.418"/>
</svg>
